images/cq_api-rest.svg

<svg width="124" height="124" viewBox="0 0 124 124" fill="none" xmlns="http://www.w3.org/2000/svg">
<path d="M62 124C96.2417 124 124 96.2417 124 62C124 27.7583 96.2417 0 62 0C27.7583 0 0 27.7583 0 62C0 96.2417 27.7583 124 62 124Z" fill="white"/>
<path d="M62 123.5C95.9655 123.5 123.5 95.9655 123.5 62C123.5 28.0345 95.9655 0.5 62 0.5C28.0345 0.5 0.5 28.0345 0.5 62C0.5 95.9655 28.0345 123.5 62 123.5Z" stroke="#FEAB45"/>
<path d="M62 115C91.2711 115 115 91.2711 115 62C115 32.7289 91.2711 9 62 9C32.7289 9 9 32.7289 9 62C9 91.2711 32.7289 115 62 115Z" fill="#FEAB45"/>
<path d="M50.5 57.6875H54.8125V62H56.25V49.0625V47.625H50.5V49.0625H54.8125V56.25H50.5V49.0625H49.0625V62H50.5V57.6875Z" fill="white"/>
<path d="M60.5625 57.6875H66.3125V49.0625H64.875V56.25H60.5625V49.0625H64.875V47.625H59.125V62H60.5625V57.6875Z" fill="white"/>
<path d="M73.5 60.5625H72.0625V49.0625H73.5V47.625H69.1875V49.0625H70.625V60.5625H69.1875V62H73.5V60.5625Z" fill="white"/>
<path d="M43.3125 28.1167V33.595L50.5 39.345V43.3125H44.75V47.625H37.9032L34.0636 42.9229C34.4489 42.4342 34.6875 41.8261 34.6875 41.1562C34.6875 39.5693 33.3995 38.2812 31.8125 38.2812C30.2255 38.2812 28.9375 39.5693 28.9375 41.1562C28.9375 42.7432 30.2255 44.0312 31.8125 44.0312C32.2078 44.0312 32.5859 43.9508 32.928 43.8056L37.2218 49.0625H44.75V51.9375H35.8274L33.2644 54.5006C32.836 54.2476 32.3444 54.0938 31.8125 54.0938C30.2255 54.0938 28.9375 55.3818 28.9375 56.9688C28.9375 58.5557 30.2255 59.8438 31.8125 59.8438C33.3995 59.8438 34.6875 58.5557 34.6875 56.9688C34.6875 56.4369 34.5337 55.9452 34.2807 55.5169L36.4226 53.375H44.75V60.5625H35.8274L33.2644 63.1256C32.836 62.8726 32.3444 62.7188 31.8125 62.7188C30.2255 62.7188 28.9375 64.0068 28.9375 65.5938C28.9375 67.1807 30.2255 68.4688 31.8125 68.4688C33.3995 68.4688 34.6875 67.1807 34.6875 65.5938C34.6875 65.0619 34.5337 64.5703 34.2807 64.1419L36.4226 62H44.75V66.3125H50.5V67.75C49.2623 68.0706 48.3438 69.1861 48.3438 70.5229C48.3438 72.1099 49.6318 73.3979 51.2188 73.3979C52.8057 73.3979 54.0938 72.1099 54.0938 70.5229C54.0938 69.1861 53.1752 68.0706 51.9375 67.75V66.3125H57.6875V67.75C56.4498 68.0706 55.5312 69.1861 55.5312 70.5229C55.5312 72.1099 56.8193 73.3979 58.4062 73.3979C59.9932 73.3979 61.2812 72.1099 61.2812 70.5229C61.2812 69.1861 60.3627 68.0706 59.125 67.75V66.3125H64.875V67.75C63.6373 68.0706 62.7188 69.1861 62.7188 70.5229C62.7188 72.1099 64.0068 73.3979 65.5938 73.3979C67.1807 73.3979 68.4688 72.1099 68.4688 70.5229C68.4688 69.1861 67.5502 68.0706 66.3125 67.75V66.3125H72.0625V67.75C70.8248 68.0706 69.9062 69.1861 69.9062 70.5229C69.9062 72.1099 71.1943 73.3979 72.7812 73.3979C74.3682 73.3979 75.6562 72.1099 75.6562 70.5229C75.6562 69.1861 74.7377 68.0706 73.5 67.75V66.3125H79.25V62H87.5774L89.7193 64.1419C89.4663 64.5703 89.3125 65.0619 89.3125 65.5938C89.3125 67.1807 90.6005 68.4688 92.1875 68.4688C93.7745 68.4688 95.0625 67.1807 95.0625 65.5938C95.0625 64.0068 93.7745 62.7188 92.1875 62.7188C91.6556 62.7188 91.164 62.8726 90.7356 63.1256L88.1726 60.5625H79.25V57.6875H88.1668L90.3475 55.5658C90.8463 55.9869 91.4831 56.25 92.1875 56.25C93.7745 56.25 95.0625 54.962 95.0625 53.375C95.0625 51.788 93.7745 50.5 92.1875 50.5C90.6005 50.5 89.3125 51.788 89.3125 53.375C89.3125 53.7301 89.3858 54.0664 89.5037 54.3813L87.5832 56.25H79.25V49.0625H86.7782L91.0706 43.8056C91.4141 43.9508 91.7922 44.0312 92.1875 44.0312C93.7745 44.0312 95.0625 42.7432 95.0625 41.1562C95.0625 39.5693 93.7745 38.2812 92.1875 38.2812C90.6005 38.2812 89.3125 39.5693 89.3125 41.1562C89.3125 41.8261 89.5511 42.4342 89.9364 42.9229L86.0968 47.625H79.25V43.3125H73.5V39.345L80.6875 33.595V28.1167C81.9252 27.7961 82.8438 26.6806 82.8438 25.3438C82.8438 23.7568 81.5557 22.4688 79.9688 22.4688C78.3818 22.4688 77.0938 23.7568 77.0938 25.3438C77.0938 26.6806 78.0123 27.7961 79.25 28.1167V32.905L72.0625 38.655V43.3125H66.3125V36.4758L73.5 30.8451V28.1167C74.7377 27.7961 75.6562 26.6806 75.6562 25.3438C75.6562 23.7568 74.3682 22.4688 72.7812 22.4688C71.1943 22.4688 69.9062 23.7568 69.9062 25.3438C69.9062 26.6806 70.8248 27.7961 72.0625 28.1167V30.145L64.875 35.7757V43.3125H59.125V35.7742L51.9375 30.145V28.1167C53.1752 27.7961 54.0938 26.6806 54.0938 25.3438C54.0938 23.7568 52.8057 22.4688 51.2188 22.4688C49.6318 22.4688 48.3438 23.7568 48.3438 25.3438C48.3438 26.6806 49.2623 27.7961 50.5 28.1167V30.8451L57.6875 36.4758V43.3125H51.9375V38.655L44.75 32.905V28.1167C45.9877 27.7961 46.9062 26.6806 46.9062 25.3438C46.9062 23.7568 45.6182 22.4688 44.0312 22.4688C42.4443 22.4688 41.1562 23.7568 41.1562 25.3438C41.1562 26.6806 42.0748 27.7961 43.3125 28.1167ZM31.8125 42.5938C31.019 42.5938 30.375 41.9497 30.375 41.1562C30.375 40.3628 31.019 39.7188 31.8125 39.7188C32.606 39.7188 33.25 40.3628 33.25 41.1562C33.25 41.9497 32.606 42.5938 31.8125 42.5938ZM31.8125 58.4062C31.019 58.4062 30.375 57.7622 30.375 56.9688C30.375 56.1753 31.019 55.5312 31.8125 55.5312C32.606 55.5312 33.25 56.1753 33.25 56.9688C33.25 57.7622 32.606 58.4062 31.8125 58.4062ZM31.8125 67.0312C31.019 67.0312 30.375 66.3872 30.375 65.5938C30.375 64.8003 31.019 64.1562 31.8125 64.1562C32.606 64.1562 33.25 64.8003 33.25 65.5938C33.25 66.3872 32.606 67.0312 31.8125 67.0312ZM92.1875 64.1562C92.981 64.1562 93.625 64.8003 93.625 65.5938C93.625 66.3872 92.981 67.0312 92.1875 67.0312C91.394 67.0312 90.75 66.3872 90.75 65.5938C90.75 64.8003 91.394 64.1562 92.1875 64.1562ZM92.1875 51.9375C92.981 51.9375 93.625 52.5815 93.625 53.375C93.625 54.1685 92.981 54.8125 92.1875 54.8125C91.394 54.8125 90.75 54.1685 90.75 53.375C90.75 52.5815 91.394 51.9375 92.1875 51.9375ZM92.1875 39.7188C92.981 39.7188 93.625 40.3628 93.625 41.1562C93.625 41.9497 92.981 42.5938 92.1875 42.5938C91.394 42.5938 90.75 41.9497 90.75 41.1562C90.75 40.3628 91.394 39.7188 92.1875 39.7188ZM78.5312 25.3438C78.5312 24.5503 79.1753 23.9062 79.9688 23.9062C80.7622 23.9062 81.4062 24.5503 81.4062 25.3438C81.4062 26.1372 80.7622 26.7812 79.9688 26.7812C79.1753 26.7812 78.5312 26.1372 78.5312 25.3438ZM71.3438 25.3438C71.3438 24.5503 71.9878 23.9062 72.7812 23.9062C73.5747 23.9062 74.2188 24.5503 74.2188 25.3438C74.2188 26.1372 73.5747 26.7812 72.7812 26.7812C71.9878 26.7812 71.3438 26.1372 71.3438 25.3438ZM49.7812 25.3438C49.7812 24.5503 50.4253 23.9062 51.2188 23.9062C52.0122 23.9062 52.6562 24.5503 52.6562 25.3438C52.6562 26.1372 52.0122 26.7812 51.2188 26.7812C50.4253 26.7812 49.7812 26.1372 49.7812 25.3438ZM52.6562 70.5229C52.6562 71.3164 52.0122 71.9604 51.2188 71.9604C50.4253 71.9604 49.7812 71.3164 49.7812 70.5229C49.7812 69.7294 50.4253 69.0854 51.2188 69.0854C52.0122 69.0854 52.6562 69.7294 52.6562 70.5229ZM59.8438 70.5229C59.8438 71.3164 59.1997 71.9604 58.4062 71.9604C57.6128 71.9604 56.9688 71.3164 56.9688 70.5229C56.9688 69.7294 57.6128 69.0854 58.4062 69.0854C59.1997 69.0854 59.8438 69.7294 59.8438 70.5229ZM67.0312 70.5229C67.0312 71.3164 66.3872 71.9604 65.5938 71.9604C64.8003 71.9604 64.1562 71.3164 64.1562 70.5229C64.1562 69.7294 64.8003 69.0854 65.5938 69.0854C66.3872 69.0854 67.0312 69.7294 67.0312 70.5229ZM74.2188 70.5229C74.2188 71.3164 73.5747 71.9604 72.7812 71.9604C71.9878 71.9604 71.3438 71.3164 71.3438 70.5229C71.3438 69.7294 71.9878 69.0854 72.7812 69.0854C73.5747 69.0854 74.2188 69.7294 74.2188 70.5229ZM77.8125 44.75V47.625V49.0625V56.25V57.6875V60.5625V62V64.875H46.1875V62V60.5625V53.375V51.9375V49.0625V47.625V44.75H77.8125ZM44.0312 23.9062C44.8247 23.9062 45.4688 24.5503 45.4688 25.3438C45.4688 26.1372 44.8247 26.7812 44.0312 26.7812C43.2378 26.7812 42.5938 26.1372 42.5938 25.3438C42.5938 24.5503 43.2378 23.9062 44.0312 23.9062Z" fill="white"/>
<path d="M97.9375 30.375H82.125V31.8125H97.9375C98.7296 31.8125 99.375 32.4579 99.375 33.25V79.25H24.625V33.25C24.625 32.4579 25.2704 31.8125 26.0625 31.8125H41.875V30.375H26.0625C24.4812 30.375 23.1875 31.6687 23.1875 33.25V79.25V79.664V83.5625C23.1875 85.1438 24.4812 86.4375 26.0625 86.4375H52.9639L50.9097 93.625H46.1875C44.6005 93.625 43.3125 94.913 43.3125 96.5V97.9375H80.6875V96.5C80.6875 94.913 79.3995 93.625 77.8125 93.625H73.0889L71.0347 86.4375H97.9375C99.5188 86.4375 100.812 85.1438 100.812 83.5625V80.4359V79.25V33.25C100.812 31.6687 99.5188 30.375 97.9375 30.375ZM73.5 95.0625H77.8125C78.6046 95.0625 79.25 95.7079 79.25 96.5H44.75C44.75 95.7079 45.3954 95.0625 46.1875 95.0625H50.5H73.5ZM71.5939 93.625H52.4061L54.4603 86.4375H69.5411L71.5939 93.625ZM99.375 83.5625C99.375 84.3546 98.7296 85 97.9375 85H70.625H53.375H26.0625C25.2704 85 24.625 84.3546 24.625 83.5625V80.6875H99.375V83.5625Z" fill="white"/>
<path d="M46.1875 30.375V31.8125H49.4032L49.0625 31.5451V30.375H46.1875Z" fill="white"/>
<path d="M67.6018 31.8125L69.4375 30.375H54.5623L56.3979 31.8125H67.6018Z" fill="white"/>
<path d="M77.8124 30.375H74.9374V31.5451L74.5967 31.8125H77.8124V30.375Z" fill="white"/>
<path d="M63.9319 34.6875L65.7676 33.25H58.2322L60.0679 34.6875H63.9319Z" fill="white"/>
<path d="M26.0625 33.25V76.375H97.9375V33.25H82.125V34.2864L81.6233 34.6875H96.5V74.9375H27.5V34.6875H42.3767L41.875 34.2864V33.25H26.0625Z" fill="white"/>
<path d="M53.0745 34.6875L51.2389 33.25H47.4827L49.2795 34.6875H53.0745Z" fill="white"/>
<path d="M70.9255 34.6875H74.7205L76.5174 33.25H72.7612L70.9255 34.6875Z" fill="white"/>
</svg>

<svg width="124" height="124" fill="none" xmlns="http://www.w3.org/2000/svg"><path d="M62 124c34.242 0 62-27.758 62-62 0-34.242-27.758-62-62-62C27.758 0 0 27.758 0 62c0 34.242 27.758 62 62 62z" fill="#fff"/><path d="M62 123.5c33.966 0 61.5-27.534 61.5-61.5C123.5 28.035 95.966.5 62 .5 28.035.5.5 28.035.5 62c0 33.966 27.535 61.5 61.5 61.5z" stroke="#FEAB45"/><path d="M62 115c29.271 0 53-23.729 53-53S91.271 9 62 9 9 32.729 9 62s23.729 53 53 53z" fill="#FEAB45"/><path d="M50.5 57.688h4.313V62h1.437V47.625H50.5v1.438h4.313v7.187H50.5v-7.188h-1.438V62H50.5v-4.313zM60.563 57.688h5.75v-8.626h-1.438v7.188h-4.313v-7.188h4.313v-1.437h-5.75V62h1.438v-4.313zM73.5 60.563h-1.438v-11.5H73.5v-1.438h-4.313v1.438h1.438v11.5h-1.438V62H73.5v-1.438z" fill="#fff"/><path d="M43.313 28.117v5.478l7.187 5.75v3.968h-5.75v4.312h-6.847l-3.84-4.702a2.84 2.84 0 00.624-1.767 2.876 2.876 0 00-5.75 0 2.876 2.876 0 003.991 2.65l4.294 5.257h7.528v2.874h-8.923l-2.563 2.564a2.841 2.841 0 00-1.452-.407 2.876 2.876 0 000 5.75 2.876 2.876 0 002.875-2.875 2.84 2.84 0 00-.406-1.452l2.142-2.142h8.327v7.188h-8.923l-2.563 2.563a2.841 2.841 0 00-1.452-.407 2.876 2.876 0 000 5.75 2.876 2.876 0 002.875-2.875c0-.532-.153-1.024-.406-1.452L36.423 62h8.327v4.313h5.75v1.437a2.87 2.87 0 00-2.156 2.773 2.876 2.876 0 005.75 0 2.87 2.87 0 00-2.157-2.773v-1.438h5.75v1.438a2.87 2.87 0 00-2.156 2.773 2.876 2.876 0 005.75 0 2.87 2.87 0 00-2.156-2.773v-1.438h5.75v1.438a2.87 2.87 0 00-2.156 2.773 2.876 2.876 0 005.75 0 2.87 2.87 0 00-2.156-2.773v-1.438h5.75v1.438a2.87 2.87 0 00-2.157 2.773 2.876 2.876 0 005.75 0A2.87 2.87 0 0073.5 67.75v-1.438h5.75V62h8.327l2.142 2.142c-.253.428-.406.92-.406 1.452a2.876 2.876 0 005.75 0 2.876 2.876 0 00-2.876-2.875c-.531 0-1.023.154-1.451.407l-2.563-2.563H79.25v-2.876h8.917l2.18-2.121a2.841 2.841 0 001.84.684 2.876 2.876 0 000-5.75 2.876 2.876 0 00-2.874 2.875c0 .355.073.691.19 1.006l-1.92 1.869H79.25v-7.188h7.528l4.293-5.256a2.876 2.876 0 101.117-5.524 2.876 2.876 0 00-2.876 2.874c0 .67.24 1.278.624 1.767l-3.84 4.702H79.25v-4.313H73.5v-3.967l7.188-5.75v-5.478a2.87 2.87 0 002.156-2.773 2.876 2.876 0 00-5.75 0 2.87 2.87 0 002.156 2.773v4.788l-7.188 5.75v4.657h-5.75v-6.836l7.188-5.63v-2.73a2.87 2.87 0 002.156-2.772 2.876 2.876 0 00-5.75 0 2.87 2.87 0 002.156 2.773v2.028l-7.187 5.63v7.538h-5.75v-7.539l-7.188-5.629v-2.028a2.87 2.87 0 002.157-2.773 2.876 2.876 0 00-5.75 0 2.87 2.87 0 002.156 2.773v2.728l7.188 5.63v6.837h-5.75v-4.657l-7.188-5.75v-4.788a2.87 2.87 0 002.156-2.773 2.876 2.876 0 00-5.75 0 2.87 2.87 0 002.157 2.773zm-11.5 14.477a1.438 1.438 0 110-2.876 1.438 1.438 0 010 2.876zm0 15.812a1.438 1.438 0 110-2.876 1.438 1.438 0 010 2.876zm0 8.625a1.438 1.438 0 110-2.876 1.438 1.438 0 010 2.876zm60.374-2.875a1.438 1.438 0 110 2.876 1.438 1.438 0 010-2.876zm0-12.219a1.438 1.438 0 110 2.877 1.438 1.438 0 010-2.877zm0-12.218a1.438 1.438 0 110 2.876 1.438 1.438 0 010-2.876zM78.531 25.344a1.438 1.438 0 112.877.001 1.438 1.438 0 01-2.877-.001zm-7.187 0a1.438 1.438 0 112.876 0 1.438 1.438 0 01-2.876 0zm-21.563 0a1.438 1.438 0 112.877.001 1.438 1.438 0 01-2.877-.001zm2.875 45.179a1.438 1.438 0 11-2.876-.001 1.438 1.438 0 012.876 0zm7.188 0a1.438 1.438 0 11-2.876-.001 1.438 1.438 0 012.876 0zm7.187 0a1.438 1.438 0 11-2.876-.001 1.438 1.438 0 012.876 0zm7.188 0a1.438 1.438 0 11-2.876-.001 1.438 1.438 0 012.876 0zm3.594-25.773v20.125H46.186V44.75h31.626zM44.03 23.906a1.438 1.438 0 11-.001 2.877 1.438 1.438 0 01.001-2.877z" fill="#fff"/><path d="M97.938 30.375H82.124v1.438h15.813a1.44 1.44 0 011.437 1.437v46h-74.75v-46a1.44 1.44 0 011.438-1.438h15.812v-1.437H26.062a2.883 2.883 0 00-2.875 2.875V83.562a2.883 2.883 0 002.875 2.876h26.902l-2.054 7.187h-4.722a2.876 2.876 0 00-2.876 2.875v1.438h37.376V96.5a2.876 2.876 0 00-2.876-2.875H73.09l-2.054-7.188h26.903a2.883 2.883 0 002.874-2.874V33.25a2.883 2.883 0 00-2.874-2.875zM73.5 95.063h4.313A1.44 1.44 0 0179.25 96.5h-34.5a1.44 1.44 0 011.438-1.438H73.5zm-1.906-1.438H52.406l2.054-7.188h15.081l2.053 7.188zm27.781-10.063A1.44 1.44 0 0197.937 85H26.063a1.44 1.44 0 01-1.437-1.438v-2.874h74.75v2.874z" fill="#fff"/><path d="M46.188 30.375v1.438h3.215l-.34-.268v-1.17h-2.876zM67.602 31.813l1.835-1.438H54.563l1.836 1.438h11.204zM77.812 30.375h-2.875v1.17l-.34.267h3.215v-1.437zM63.932 34.688l1.836-1.438h-7.536l1.836 1.438h3.864z" fill="#fff"/><path d="M26.063 33.25v43.125h71.874V33.25H82.126v1.036l-.502.401H96.5v40.25h-69v-40.25h14.877l-.502-.4V33.25H26.062z" fill="#fff"/><path d="M53.075 34.688l-1.836-1.438h-3.756l1.797 1.438h3.794zM70.925 34.688h3.796l1.796-1.438h-3.756l-1.835 1.438z" fill="#fff"/></svg>
